partners_logos_ruby/Things.svg

<svg width="200" height="200" viewBox="0 0 200 200" fill="none" xmlns="http://www.w3.org/2000/svg">
<g clip-path="url(#clip0_76_6)">
<path d="M7.32308 75.7968V80.9955C7.32308 82.0952 7.72298 82.4952 8.82271 82.4952H11.2221V84.1947H0.0249023V82.4952H1.82445C2.92418 82.4952 3.32408 82.0952 3.32408 80.9955V67.7988C3.32408 66.6991 2.92418 66.2992 1.82445 66.2992H0.0249023V64.5996H11.2221V66.2992H8.82271C7.72298 66.2992 7.32308 66.6991 7.32308 67.7988V72.8975H17.4206V67.7988C17.4206 66.6991 17.0207 66.2992 15.9209 66.2992H13.5215V64.5996H24.7187V66.2992H22.9192C21.8195 66.2992 21.4196 66.6991 21.4196 67.7988V80.9955C21.4196 82.0952 21.8195 82.4952 22.9192 82.4952H24.7187V84.1947H13.4216V82.4952H15.821C16.9207 82.4952 17.3206 82.0952 17.3206 80.9955V75.7968H7.32308Z" fill="black"/>
<path d="M47.6131 74.3973C47.6131 68.6988 43.814 63.9999 37.9155 63.9999C36.5475 63.9774 35.1888 64.2269 33.9181 64.7339C32.6474 65.241 31.4901 65.9954 30.5134 66.9535C29.5368 67.9115 28.7602 69.0541 28.2288 70.3148C27.6975 71.5755 27.4219 72.9293 27.4181 74.2974C27.4207 75.6836 27.6973 77.0556 28.232 78.3346C28.7667 79.6136 29.549 80.7742 30.5339 81.7498C31.5187 82.7253 32.6867 83.4966 33.9707 84.0191C35.2546 84.5417 36.6293 84.8053 38.0154 84.7948C42.7143 84.7948 46.6133 81.9954 47.4131 77.6965H43.814C43.4684 78.8967 42.7273 79.9448 41.7109 80.6708C40.6946 81.3967 39.4628 81.7578 38.2154 81.6955C36.52 81.7689 34.8644 81.169 33.6096 80.0266C32.3548 78.8841 31.6026 77.2919 31.5171 75.597H47.6131C47.7129 75.2034 47.7129 74.791 47.6131 74.3973ZM31.617 72.3978C31.7931 70.878 32.5433 69.4828 33.7141 68.4978C34.8849 67.5128 36.3879 67.0125 37.9155 67.0992C41.4146 67.0992 43.5141 69.7985 43.5141 71.798C43.5141 72.1979 43.2142 72.3978 42.3144 72.3978H31.617Z" fill="black"/>
<path d="M58.7103 66.2992V64.5996H82.9042V66.2992H81.1047C80.005 66.2992 79.6051 66.6991 79.6051 67.7988V80.9955C79.6051 82.0952 80.005 82.4952 81.1047 82.4952H82.9042V84.1947H71.907V82.4952H74.1064C75.2062 82.4952 75.6061 82.0952 75.6061 80.9955V67.3989H65.9085V80.9955C65.9085 82.0952 66.3084 82.4952 67.4081 82.4952H69.6075V84.1947H58.6103V82.4952H60.4098C61.5096 82.4952 61.9095 82.0952 61.9095 80.9955V67.7988C61.9095 66.6991 61.5096 66.2992 60.4098 66.2992H58.7103Z" fill="black"/>
<path d="M98.3004 64C97.0862 63.9279 95.8744 64.1763 94.7865 64.7203C93.6986 65.2642 92.7728 66.0846 92.1019 67.0992V64.4999H84.8038V66.1994H86.6033C87.703 66.1994 88.1029 66.5993 88.1029 67.6991V89.2937C88.1029 90.3934 87.703 90.7933 86.6033 90.7933H84.8038V92.4929H96.001V90.7933H93.6016C92.5018 90.7933 92.1019 90.3934 92.1019 89.2937V82.1954C93.7671 83.7988 95.9888 84.6946 98.3004 84.6948C103.999 84.6948 107.998 80.096 107.998 74.2974C108.098 68.6988 103.999 64 98.3004 64ZM98.0005 81.6956C94.8013 81.6956 92.002 78.9962 92.002 74.4974C92.002 69.9985 94.8013 67.2992 98.0005 67.2992C101.2 67.2992 103.999 69.9985 103.999 74.4974C103.999 78.9962 101.2 81.6956 98.0005 81.6956Z" fill="black"/>
<path d="M122.194 63.9999C120.138 63.9999 118.128 64.6097 116.418 65.7521C114.708 66.8946 113.375 68.5185 112.589 70.4183C111.802 72.3182 111.596 74.4088 111.997 76.4257C112.398 78.4426 113.388 80.2952 114.842 81.7493C116.297 83.2034 118.149 84.1937 120.166 84.5949C122.183 84.9961 124.274 84.7902 126.173 84.0032C128.073 83.2163 129.697 81.8836 130.84 80.1738C131.982 78.4639 132.592 76.4537 132.592 74.3973C132.609 73.027 132.352 71.6671 131.836 70.3978C131.32 69.1284 130.554 67.9753 129.585 67.0063C128.616 66.0373 127.463 65.2721 126.194 64.7557C124.925 64.2394 123.565 63.9824 122.194 63.9999ZM122.194 81.6954C118.695 81.6954 115.796 79.0961 115.796 74.4972C115.796 69.8984 118.695 67.299 122.194 67.299C125.694 67.299 128.593 69.8984 128.593 74.4972C128.593 79.0961 125.694 81.6954 122.194 81.6954Z" fill="black"/>
<path d="M152.787 77.6968H156.386C155.486 81.8957 151.787 84.795 146.888 84.795C145.503 84.8208 144.126 84.5669 142.841 84.0485C141.556 83.5301 140.388 82.7578 139.408 81.7778C138.428 80.7979 137.656 79.6304 137.137 78.3451C136.619 77.0599 136.365 75.6833 136.391 74.2976C136.37 72.9225 136.628 71.5575 137.151 70.2854C137.674 69.0133 138.449 67.8607 139.431 66.8976C140.413 65.9345 141.58 65.1811 142.862 64.683C144.144 64.1849 145.514 63.9526 146.888 64.0002C149.186 63.9013 151.436 64.6682 153.195 66.1493C154.954 67.6304 156.093 69.7177 156.386 71.9982H152.987C152.784 70.5781 152.054 69.2862 150.943 68.3788C149.832 67.4714 148.42 67.0148 146.988 67.0994C143.389 67.0994 140.39 69.5988 140.39 74.2976C140.39 78.9965 143.389 81.5958 146.988 81.5958C149.688 81.5958 151.987 80.2961 152.787 77.6968Z" fill="black"/>
<path d="M177.281 67.3993H169.783V80.9959C169.783 82.0956 170.183 82.4955 171.282 82.4955H173.082V84.1951H162.584V82.4955H164.384C165.484 82.4955 165.884 82.0956 165.884 80.9959V67.3993H158.385V64.5H177.281V67.3993Z" fill="black"/>
<path d="M189.578 63.9999C187.521 63.9999 185.511 64.6097 183.801 65.7521C182.091 66.8946 180.759 68.5185 179.972 70.4183C179.185 72.3182 178.979 74.4088 179.38 76.4257C179.781 78.4426 180.771 80.2952 182.226 81.7493C183.68 83.2034 185.532 84.1937 187.549 84.5949C189.566 84.9961 191.657 84.7902 193.557 84.0032C195.456 83.2163 197.08 81.8836 198.223 80.1738C199.365 78.4639 199.975 76.4537 199.975 74.3973C199.993 73.027 199.736 71.6671 199.219 70.3978C198.703 69.1284 197.938 67.9753 196.969 67.0063C196 66.0373 194.846 65.2721 193.577 64.7557C192.308 64.2394 190.948 63.9824 189.578 63.9999ZM189.578 81.6954C186.079 81.6954 183.179 79.0961 183.179 74.4972C183.179 69.8984 186.079 67.299 189.578 67.299C193.077 67.299 195.976 69.8984 195.976 74.4972C195.976 79.0961 192.977 81.6954 189.578 81.6954Z" fill="black"/>
<path d="M17.5205 115.587C19.52 114.988 20.4198 113.288 20.4198 111.188C20.4198 108.089 18.0204 105.99 14.4213 105.99H0.0249023V107.689H1.82445C2.92418 107.689 3.32408 108.089 3.32408 109.189V122.386C3.32408 123.485 2.92418 123.885 1.82445 123.885H0.0249023V125.585H14.9212C18.6203 125.585 20.9197 123.385 20.9197 120.086C20.9582 119.06 20.6409 118.051 20.0215 117.231C19.4022 116.412 18.5187 115.831 17.5205 115.587ZM7.32308 108.889H13.3216C15.3211 108.889 16.4208 109.789 16.4208 111.388C16.4208 113.188 15.3211 114.188 13.3216 114.188H7.32308V108.889ZM13.6215 122.886H7.32308V117.087H13.7215C15.821 117.087 16.9207 118.087 16.9207 120.086C16.9207 121.886 15.821 122.886 13.6215 122.886Z" fill="black"/>
<path d="M44.7138 115.887C44.7138 110.189 40.9147 105.49 35.0162 105.49C33.6482 105.467 32.2895 105.717 31.0188 106.224C29.7481 106.731 28.5908 107.485 27.6141 108.443C26.6375 109.401 25.8609 110.544 25.3295 111.805C24.7982 113.065 24.5226 114.419 24.5188 115.787C24.5095 117.168 24.7747 118.537 25.2989 119.815C25.8232 121.093 26.596 122.254 27.5727 123.231C28.5493 124.207 29.7102 124.98 30.988 125.504C32.2658 126.029 33.635 126.294 35.0162 126.285C39.715 126.285 43.614 123.485 44.4138 119.186H40.8147C40.4691 120.386 39.728 121.435 38.7117 122.161C37.6954 122.886 36.4635 123.248 35.2161 123.185C33.5207 123.259 31.8651 122.659 30.6103 121.516C29.3555 120.374 28.6033 118.782 28.5178 117.087H44.6138C44.6966 116.693 44.7302 116.29 44.7138 115.887ZM28.6178 113.888C28.7938 112.368 29.544 110.973 30.7148 109.988C31.8857 109.003 33.3886 108.502 34.9162 108.589C38.4153 108.589 40.5148 111.288 40.5148 113.288C40.5148 113.688 40.2149 113.888 39.3151 113.888H28.6178Z" fill="black"/>
<path d="M54.5113 109.289V122.886H60.6098V109.289C60.6098 108.189 60.2099 107.789 59.1102 107.789H58.2104V105.99H67.1082V107.689H66.2084C65.1087 107.689 64.7088 108.089 64.7088 109.189V122.786H70.8073V109.189C70.8073 108.089 70.4074 107.689 69.3076 107.689H68.4079V105.99H77.8055V107.689H76.3059C75.2062 107.689 74.8063 108.089 74.8063 109.189V121.286C74.8063 122.386 75.2062 122.786 76.3059 122.786H77.8055V131.983H75.4061V127.084C75.4061 125.985 75.0062 125.585 73.9065 125.585H47.5131V123.985H49.0127C50.1124 123.985 50.5123 123.585 50.5123 122.486V109.289C50.5123 108.189 50.1124 107.789 49.0127 107.789H47.5131V105.99H57.0107V107.689H56.1109C55.0112 107.789 54.5113 108.189 54.5113 109.289Z" fill="black"/>
<path d="M94.1015 113.188H87.6031V109.389C87.6031 108.289 88.003 107.889 89.1027 107.889H91.6021V105.99H80.4049V107.689H82.2045C83.3042 107.689 83.7041 108.089 83.7041 109.189V122.386C83.7041 123.485 83.3042 123.885 82.2045 123.885H80.4049V125.585H94.2015C95.0577 125.646 95.9173 125.53 96.7263 125.243C97.5353 124.956 98.2761 124.505 98.9021 123.917C99.5281 123.33 100.026 122.619 100.364 121.83C100.702 121.041 100.872 120.191 100.865 119.332C100.859 118.474 100.674 117.626 100.323 116.843C99.9728 116.059 99.4638 115.357 98.8284 114.78C98.193 114.202 97.445 113.763 96.6315 113.489C95.818 113.215 94.9566 113.113 94.1015 113.188ZM93.1017 122.886H87.7031V115.987H93.1017C95.3012 115.987 96.7008 117.187 96.7008 119.486C96.7008 121.786 95.2012 122.886 93.1017 122.886Z" fill="black"/>
<path d="M199.475 113.188H190.177V122.885H199.475V113.188Z" fill="black"/>
<path d="M195.576 126.084C195.276 130.483 192.877 132.883 188.478 132.883V135.882C195.776 135.882 198.875 131.783 199.375 126.084H195.576Z" fill="black"/>
</g>
<defs>
<clipPath id="clip0_76_6">
<rect width="200" height="71.8821" fill="white" transform="translate(0 64)"/>
</clipPath>
</defs>
</svg>

<?xml version="1.0" encoding="utf-8"?>
<!-- Generator: Adobe Illustrator 23.1.1, SVG Export Plug-In . SVG Version: 6.00 Build 0)  -->
<svg version="1.1" id="Слой_1" xmlns="http://www.w3.org/2000/svg" xmlns:xlink="http://www.w3.org/1999/xlink" x="0px" y="0px"
	 viewBox="0 0 200 200" style="enable-background:new 0 0 200 200;" xml:space="preserve">
<path d="M7.3,75.8V81c0,1.1,0.4,1.5,1.5,1.5h2.4v1.7H0v-1.7h1.8c1.1,0,1.5-0.4,1.5-1.5V67.8c0-1.1-0.4-1.5-1.5-1.5H0v-1.7h11.2v1.7
	H8.8c-1.1,0-1.5,0.4-1.5,1.5v5.1h10.1v-5.1c0-1.1-0.4-1.5-1.5-1.5h-2.4v-1.7h11.2v1.7h-1.8c-1.1,0-1.5,0.4-1.5,1.5V81
	c0,1.1,0.4,1.5,1.5,1.5h1.8v1.7H13.4v-1.7h2.4c1.1,0,1.5-0.4,1.5-1.5v-5.2H7.3z"/>
<path d="M47.6,74.4c0-5.7-3.8-10.4-9.7-10.4s-10.5,4.6-10.5,10.3C27.4,80,32,84.8,38,84.8c4.7,0,8.6-2.8,9.4-7.1h-3.6
	c-0.6,2.5-3,4-5.6,4c-3.4,0-6.3-2.1-6.7-6.1h16.1C47.7,75.1,47.7,74.9,47.6,74.4L47.6,74.4z M31.6,72.4c0.5-3.5,3.2-5.3,6.3-5.3
	c3.5,0,5.6,2.7,5.6,4.7c0,0.4-0.3,0.6-1.2,0.6H31.6z"/>
<path d="M58.7,66.3v-1.7h24.2v1.7h-1.8c-1.1,0-1.5,0.4-1.5,1.5V81c0,1.1,0.4,1.5,1.5,1.5h1.8v1.7h-11v-1.7h2.2
	c1.1,0,1.5-0.4,1.5-1.5V67.4h-9.7V81c0,1.1,0.4,1.5,1.5,1.5h2.2v1.7h-11v-1.7h1.8c1.1,0,1.5-0.4,1.5-1.5V67.8c0-1.1-0.4-1.5-1.5-1.5
	H58.7z"/>
<path d="M98.3,64c-3,0-4.9,1.2-6.2,3.1v-2.6h-7.3v1.7h1.8c1.1,0,1.5,0.4,1.5,1.5v21.6c0,1.1-0.4,1.5-1.5,1.5h-1.8v1.7h11.2v-1.7
	h-2.4c-1.1,0-1.5-0.4-1.5-1.5v-7.1c1.5,1.5,3.8,2.5,6.2,2.5c5.7,0,9.7-4.6,9.7-10.4C108.1,68.7,104,64,98.3,64z M98,81.7
	c-3.2,0-6-2.7-6-7.2c0-4.6,2.8-7.2,6-7.2c3.2,0,6,2.7,6,7.2C104,79,101.2,81.7,98,81.7z"/>
<path d="M122.2,64c-5.8,0-10.4,4.5-10.4,10.4c0,5.8,4.6,10.4,10.4,10.4c5.8,0,10.4-4.5,10.4-10.4C132.6,68.6,128,64,122.2,64z
	 M122.2,81.7c-3.5,0-6.4-2.6-6.4-7.2c0-4.7,2.9-7.2,6.4-7.2c3.5,0,6.4,2.6,6.4,7.2C128.6,79.1,125.7,81.7,122.2,81.7z"/>
<path d="M152.8,77.7h3.6c-0.9,4.2-4.6,7.1-9.5,7.1c-6,0-10.5-4.6-10.5-10.5c0-5.9,4.5-10.3,10.5-10.3c5,0,8.7,3.1,9.5,8H153
	c-0.7-3.4-3.1-4.9-6-4.9c-3.6,0-6.6,2.5-6.6,7.2c0,4.6,3,7.3,6.6,7.3C149.7,81.6,152,80.3,152.8,77.7L152.8,77.7z"/>
<path d="M177.3,67.4h-7.5V81c0,1.1,0.4,1.5,1.5,1.5h1.8v1.7h-10.5v-1.7h1.8c1.1,0,1.5-0.4,1.5-1.5V67.4h-7.5v-2.9h18.9V67.4z"/>
<path d="M189.6,64c-5.8,0-10.4,4.5-10.4,10.4c0,5.8,4.6,10.4,10.4,10.4c5.8,0,10.4-4.5,10.4-10.4C200,68.6,195.4,64,189.6,64z
	 M189.6,81.7c-3.5,0-6.4-2.6-6.4-7.2c0-4.7,2.9-7.2,6.4-7.2c3.5,0,6.4,2.6,6.4,7.2C196,79.1,193,81.7,189.6,81.7z"/>
<path d="M17.5,115.6c2-0.6,2.9-2.3,2.9-4.4c0-3.1-2.4-5.2-6-5.2H0v1.7h1.8c1.1,0,1.5,0.4,1.5,1.5v13.2c0,1.1-0.4,1.5-1.5,1.5H0v1.7
	h14.9c3.7,0,6-2.2,6-5.5C20.9,118.1,19.8,116.2,17.5,115.6L17.5,115.6z M7.3,108.9h6c2,0,3.1,0.9,3.1,2.5c0,1.8-1.1,2.8-3.1,2.8h-6
	V108.9z M13.6,122.9H7.3v-5.8h6.4c2.1,0,3.2,1,3.2,3C16.9,121.9,15.8,122.9,13.6,122.9z"/>
<path d="M44.7,115.9c0-5.7-3.8-10.4-9.7-10.4c-5.9,0-10.5,4.6-10.5,10.3c0,5.7,4.5,10.5,10.5,10.5c4.7,0,8.6-2.8,9.4-7.1h-3.6
	c-0.6,2.5-3,4-5.6,4c-3.4,0-6.3-2.1-6.7-6.1h16.1C44.7,116.6,44.7,116.4,44.7,115.9L44.7,115.9z M28.6,113.9
	c0.5-3.5,3.2-5.3,6.3-5.3c3.5,0,5.6,2.7,5.6,4.7c0,0.4-0.3,0.6-1.2,0.6H28.6z"/>
<path d="M54.5,109.3v13.6h6.1v-13.6c0-1.1-0.4-1.5-1.5-1.5h-0.9V106h8.9v1.7h-0.9c-1.1,0-1.5,0.4-1.5,1.5v13.6h6.1v-13.6
	c0-1.1-0.4-1.5-1.5-1.5h-0.9V106h9.4v1.7h-1.5c-1.1,0-1.5,0.4-1.5,1.5v12.1c0,1.1,0.4,1.5,1.5,1.5h1.5v9.2h-2.4v-4.9
	c0-1.1-0.4-1.5-1.5-1.5H47.5V124H49c1.1,0,1.5-0.4,1.5-1.5v-13.2c0-1.1-0.4-1.5-1.5-1.5h-1.5V106H57v1.7h-0.9
	C55,107.8,54.5,108.2,54.5,109.3L54.5,109.3z"/>
<path d="M94.1,113.2h-6.5v-3.8c0-1.1,0.4-1.5,1.5-1.5h2.5V106H80.4v1.7h1.8c1.1,0,1.5,0.4,1.5,1.5v13.2c0,1.1-0.4,1.5-1.5,1.5h-1.8
	v1.7h13.8c3.9,0,6.6-2.7,6.6-6.3C100.7,115.9,98,113.1,94.1,113.2L94.1,113.2z M93.1,122.9h-5.4V116h5.4c2.2,0,3.6,1.2,3.6,3.5
	C96.7,121.7,95.2,122.9,93.1,122.9z"/>
<path d="M199.5,113.2h-9.3v9.7h9.3V113.2z"/>
<path d="M195.6,126.1c-0.3,4.4-2.7,6.8-7.1,6.8v3c7.3,0,10.4-4.1,10.9-9.8H195.6z"/>
</svg>
